X: 16
T:Mary Willie's Slide [in D]
T:Cat's Ramble to the Child's Saucepan, The
M:12/8
L:1/8
R:Slide
K:D
A[|d2e f2e dcd B3|g2A cBA e2A cBA|!
d2e f2e dcd BdB|g2A cBA d3 d2A||!
d2e f2e dcd B3|g2A cBA e2A cBA|!
d2e f2e dcd BdB|g2A cBA d3 d2A|]!
d2e f2a baf a2f|e2A cBA e2A cBA|!
d2e f2a baf a2f|e2A cBA d3 d2A||!
d2e f2a baf a2f|e2A cBA e2A cBA|!
d2e f2a baf a2f|e2A cBA d3 d2A|]!
